ui/StatusQ/src/assets/img/icons/profile/signout.svg

<svg fill="none" height="20" viewBox="0 0 20 20" width="20" xmlns="http://www.w3.org/2000/svg"><g fill="#ff2d55"><path d="m10 18.5c4.6944 0 8.5-3.8056 8.5-8.5 0-2.79331-1.3474-5.27193-3.4277-6.82135-.3202-.2385-.4382-.67457-.247-1.02508.2062-.37791.6884-.50855 1.037-.25592 2.507 1.81708 4.1377 4.76928 4.1377 8.10235 0 5.5228-4.4772 10-10 10-5.52285 0-9.99999976-4.4772-10-10-.00000015-3.33307 1.63066-6.28527 4.13772-8.10235.34855-.25263.83082-.12199 1.03695.25592.19119.35051.07326.78659-.24695 1.02508-2.08032 1.54942-3.42772 4.02804-3.42772 6.82135 0 4.6944 3.80558 8.5 8.5 8.5z"/><path d="m10.75 1c0-.414213-.3358-.75-.75-.75-.41421 0-.75.335787-.75.75v9c0 .4142.33579.75.75.75.4142 0 .75-.3358.75-.75z"/></g></svg>

<svg width="20" height="20" viewBox="0 0 20 20" fill="none" xmlns="http://www.w3.org/2000/svg">
<path d="M10 18.5C14.6944 18.5 18.5 14.6944 18.5 10C18.5 7.20669 17.1526 4.72807 15.0723 3.17865C14.7521 2.94015 14.6341 2.50408 14.8253 2.15357C15.0315 1.77566 15.5137 1.64502 15.8623 1.89765C18.3693 3.71473 20 6.66693 20 10C20 15.5228 15.5228 20 10 20C4.47715 20 2.41411e-07 15.5228 0 10C-1.45693e-07 6.66693 1.63066 3.71473 4.13772 1.89765C4.48627 1.64502 4.96854 1.77566 5.17467 2.15357C5.36586 2.50408 5.24793 2.94016 4.92772 3.17865C2.8474 4.72807 1.5 7.20669 1.5 10C1.5 14.6944 5.30558 18.5 10 18.5Z" fill="#FF2D55"/>
<path d="M10.75 1C10.75 0.585787 10.4142 0.25 10 0.25C9.58579 0.25 9.25 0.585787 9.25 1V10C9.25 10.4142 9.58579 10.75 10 10.75C10.4142 10.75 10.75 10.4142 10.75 10V1Z" fill="#FF2D55"/>
</svg>
